X:206
T:Rolling in the Barrel
M:4/4
L:1/8
R:reel
D:Lunasa: Otherworld
Z:Michael Abraham Shulman
N:Lunasa plays this tune in A minor.
K:Em
|:E2~E2 BE~E2|B2 AF DEFD|E2~E2 BE ~E2|1 B2Ac BEED:|2 B2Ac BE~E2|
|:e2ge bege|d^cdf a^gaf|1 e2ge bege|dBAc BE~E2:|2 effe fgfe|dBAc B2AF||
